X:14
T:Gower Wassail
M:9/8
L:1/4
K:C
 z2 z E- A/2| A3/2 A3/2 B- A/2| G3/2 G3/2 A- B/2| B3/2 c3/2 d3/2| B3 c- B/2|\
 A3/2 A3/2 B3/2|c/2-d/2-c/2 B3/2 A3/2| G3/2 E3/2 E3/2| E3 E- A/2| A3/2 A3/2 B- A/2|\
 G3 A G/2| c- B/2 c3/2 d3/2| B3 c- B/2| A3/2 A3/2 B3/2|c/2-d/2-c/2 B3/2 A A/2|\
 G3/2 E3/2 E3/2| E3/2- D3/2 C D/2| E3/2 E G/2 ^F E/2| D3/2 D ^F/2 E D/2|\
 C3/2 C E/2 D C/2| B,3 A, B,/2|C/2-D/2-C/2 B,3/2 C D/2| F3/2 E3/2 D3/2|\
 E3/2 A3/2 G3/4- A3/4| A3 z z/2|

